X:428
T:
S:Ur von Baumgartens samling.
R:vals
O:Gotland, Visby
M:3/4
L:1/8
K:F
c2|a4 f2|c4 A2|B2 BABd|c4 c2|a4 f2|b4 g2|e2 edeg|f4::ef|g2 gefa|
g2 gefa|g2 gefd|c=Bcdef|g2 gefa|g2 fefa|g2 gefd|c4 c2|a4 f2|
c4 A2|B2 BABd|c4 c2|a4 f2|b4 g2|e2 edeg|f4 :|

